Simply-Black-Circles/scalable/apps/menu-editor.svg

<svg xmlns="http://www.w3.org/2000/svg" width="48" height="48" viewBox="0 0 12.7 12.7"><path d="M6.344.072a6.29 6.29 0 0 0-6.29 6.29 6.29 6.29 0 0 0 6.29 6.289 6.29 6.29 0 0 0 6.29-6.29 6.29 6.29 0 0 0-6.29-6.29zm-.018.937a5.407 5.407 0 0 1 4.194 2H2.134a5.407 5.407 0 0 1 4.192-2zm-2.294.835v.9h.899v-.9h-.9zm1.396.26v.356h3.098v-.355H5.428zM1.822 3.434h1.092v6.194c0 .367.256.663.575.663h3.902c.319 0 .575-.296.575-.663V7.465l1.64-1.64-.992-.993-.648.648V3.433h2.864a5.407 5.407 0 0 1 .902 2.983 5.407 5.407 0 0 1-5.407 5.407A5.407 5.407 0 0 1 .92 6.416a5.407 5.407 0 0 1 .902-2.983zm1.505 0h4.228a.64.64 0 0 1 .02.15v2.289l-.83.828h-.408v.014H5.061v.354h1.277v.04l-.65.652v.373h-.64v.354h.64v.265h.992l.264-.265h.234v-.233l.397-.398V9.12c0 .31-.217.56-.486.56H3.793c-.27 0-.486-.25-.486-.56V3.583a.64.64 0 0 1 .02-.15zm.338.375v.898h.9v-.898h-.9zm5.9.182a.264.264 0 0 0-.186.077l-.484.485.992.992.484-.484a.265.265 0 0 0 0-.374l-.618-.62a.264.264 0 0 0-.187-.076h-.001zm-4.505.078v.354h2.13v-.354H5.06zM3.666 5.085v.9h.9v-.9h-.9zm1.395.26v.354H7.19v-.354H5.06zM3.666 6.453v.899h.9v-.9h-.9zm-.012 1.419v.899h.9v-.9h-.9z" fill="#1a1a1a"/></svg>

<?xml version="1.0" encoding="UTF-8" standalone="no"?>
<svg
   xmlns:dc="http://purl.org/dc/elements/1.1/"
   xmlns:cc="http://creativecommons.org/ns#"
   xmlns:rdf="http://www.w3.org/1999/02/22-rdf-syntax-ns#"
   xmlns:svg="http://www.w3.org/2000/svg"
   xmlns="http://www.w3.org/2000/svg"
   xmlns:sodipodi="http://sodipodi.sourceforge.net/DTD/sodipodi-0.dtd"
   xmlns:inkscape="http://www.inkscape.org/namespaces/inkscape"
   width="48"
   height="48"
   viewBox="0 0 12.7 12.7"
   version="1.1"
   id="svg4"
   sodipodi:docname="menu-editor.svg"
   inkscape:version="0.92.4 (5da689c313, 2019-01-14)">
  <metadata
     id="metadata10">
    <rdf:RDF>
      <cc:Work
         rdf:about="">
        <dc:format>image/svg+xml</dc:format>
        <dc:type
           rdf:resource="http://purl.org/dc/dcmitype/StillImage" />
        <dc:title></dc:title>
      </cc:Work>
    </rdf:RDF>
  </metadata>
  <defs
     id="defs8" />
  <sodipodi:namedview
     pagecolor="#ffffff"
     bordercolor="#666666"
     borderopacity="1"
     objecttolerance="10"
     gridtolerance="10"
     guidetolerance="10"
     inkscape:pageopacity="0"
     inkscape:pageshadow="2"
     inkscape:window-width="1087"
     inkscape:window-height="480"
     id="namedview6"
     showgrid="false"
     inkscape:zoom="4.9166667"
     inkscape:cx="2.1355932"
     inkscape:cy="24"
     inkscape:window-x="0"
     inkscape:window-y="25"
     inkscape:window-maximized="0"
     inkscape:current-layer="svg4" />
  <path
     d="m 6.344,0.072 a 6.29,6.29 0 0 0 -6.29,6.29 6.29,6.29 0 0 0 6.29,6.289 6.29,6.29 0 0 0 6.29,-6.29 6.29,6.29 0 0 0 -6.29,-6.29 z M 6.326,1.009 a 5.407,5.407 0 0 1 4.194,2 H 2.134 a 5.407,5.407 0 0 1 4.192,-2 z M 4.032,1.844 v 0.9 h 0.899 v -0.9 h -0.9 z m 1.396,0.26 V 2.46 H 8.526 V 2.105 H 5.428 Z m -3.606,1.33 h 1.092 v 6.194 c 0,0.367 0.256,0.663 0.575,0.663 h 3.902 c 0.319,0 0.575,-0.296 0.575,-0.663 V 7.465 L 9.606,5.825 8.614,4.832 7.966,5.48 V 3.433 H 10.83 A 5.407,5.407 0 0 1 11.732,6.416 5.407,5.407 0 0 1 6.325,11.823 5.407,5.407 0 0 1 0.92,6.416 5.407,5.407 0 0 1 1.822,3.433 Z m 1.505,0 h 4.228 a 0.64,0.64 0 0 1 0.02,0.15 V 5.873 L 6.745,6.701 H 6.337 V 6.715 H 5.061 v 0.354 h 1.277 v 0.04 l -0.65,0.652 v 0.373 h -0.64 v 0.354 h 0.64 V 8.753 H 6.68 L 6.944,8.488 H 7.178 V 8.255 L 7.575,7.857 V 9.12 c 0,0.31 -0.217,0.56 -0.486,0.56 H 3.793 C 3.523,9.68 3.307,9.43 3.307,9.12 V 3.583 a 0.64,0.64 0 0 1 0.02,-0.15 z m 0.338,0.375 v 0.898 h 0.9 V 3.809 Z m 5.9,0.182 A 0.264,0.264 0 0 0 9.379,4.068 L 8.895,4.553 9.887,5.545 10.371,5.061 a 0.265,0.265 0 0 0 0,-0.374 L 9.753,4.067 A 0.264,0.264 0 0 0 9.566,3.991 Z M 5.06,4.069 V 4.423 H 7.19 V 4.069 Z M 3.666,5.085 v 0.9 h 0.9 v -0.9 z m 1.395,0.26 V 5.699 H 7.19 V 5.345 H 5.06 Z M 3.666,6.453 v 0.899 h 0.9 v -0.9 h -0.9 z M 3.654,7.872 v 0.899 h 0.9 v -0.9 h -0.9 z"
     id="path2"
     inkscape:connector-curvature="0"
     style="fill:#1a1a1a" />
</svg>
